X:1
T:The Rose of Glenshee
M:3/4
L:1/4
K:F
 C| D E F| G A A|G/2-F/2 D3/2 E/2| F G A| B A G| c A G| A B c| d2 d/2e/2|\
 f e d| c A A|G/2-F/2 D E| F G A|c/2-B/2 A G| c A A|G/2-F/2 D C| D2||\
